!!!!SEGMENT: pl-wn--sd-xvi-qu-273--018_gomolka-mikolaj--ciebie-ja-poki-mi-jedno-zywota-stanie.krn
!!!cenid: 15xx:223
!!!COM: Gomółka, Mikołaj
!!!COM-rismid: pe30013343
!!!CDT: ~1535->1591/04/30
!!!CNT: Polish
!!!GTL: Melodiae na psalterz polski
!!!OTL: XVIII. Ciebie ja, póki mi jedno żywota stanie,
!!!ONB: PSALM XVIII. Diligam te domine fortitudo mea.
!!!PDT: 1580
!!!AGN: Sacred
!!!SMS-siglum: PL-Wn
!!!SMS-shelfmark: SD XVI.Qu.273
!!!SMS-shelfwork: 018 G
!!!NIFC-rismid:
!!!ONB-nifc: Melodiae na psalterz polski
**kern	**text	**kern	**text	**kern	**text	**kern	**text
*part4	*part4	*part3	*part3	*part2	*part2	*part1	*part1
*staff4	*staff4	*staff3	*staff3	*staff2	*staff2	*staff1	*staff1
*clefF4	*	*clefC3	*	*clefC3	*	*clefC1	*
*k[b-]	*	*k[b-]	*	*k[b-]	*	*k[b-]	*
*C:	*	*C:	*	*C:	*	*C:	*
*M4/2	*	*M4/2	*	*M4/2	*	*M4/2	*
*met(C)	*	*met(C)	*	*met(C)	*	*met(C)	*
*xywh-20r:559,5293,5041,1403	*	*xywh-20r:578,3996,5003,1287	*	*xywh-20r:588,2718,5090,1354	*	*xywh-20r:636,1160,5051,1722	*
=1-	=1	=1-	=1	=1-	=1	=1-	=1
1G\	Cie-	1B/	CIe-	1d\	CIe-	1g\	CIe-
1C/	-bie	1c\	-bie	1e\	-bie	1g\	-bie
=2-	=2	=2-	=2	=2-	=2	=2-	=2
1F\	ia,	1c\	ia,	1f\	ia,	1a\	ia,
2r	.	2r	.	2r	.	2r	.
2D/	pó-	2d\	pó-	2f\	pó-	2a\	pó-
=3-	=3	=3-	=3	=3-	=3	=3-	=3
2G\	-ki	2d\	-ki	2g\	-ki	2b\	-ki
2C/	mi	2e\	mi	2e\	mi	2cc\	mi
1D\	ie-	4f#\X	ie-	1d\	ie-	1a\	ie-
.	.	2g\	.	.	.	.	.
.	.	4f#\X	.	.	.	.	.
=4-	=4	=4-	=4	=4-	=4	=4-	=4
2G\	-dno	2g\	-dno	2d\	-dno	2bn\	-dno
2A\	ży-	2e\	ży-	2a\	ży-	2cc\	ży-
2A\	-wo-	2c#X/	-wo-	2a\	-wo-	2a\	-wo-
2F#\X	-tá	1d\	-tá	2a\	-tá	2a\	-tá
=5-	=5	=5-	=5	=5-	=5	=5-	=5
!	!	!	!	!	!	!LO:SIC:s=1b-:brak bemola	!
2G\	stá-	.	.	2g\	stá-	1b-\y	stá-
2GG/	.	2d\	stá-	4f#\X	.	.	.
.	.	.	.	4e\	.	.	.
1D\	-nie,	1d\	-nie,	1f#\X	-nie,	1a\	-nie
=6-	=6	=6-	=6	=6-	=6	=6-	=6
1AA/	Mi-	1c#\X	Mi-	1e\	Mi-	1a\	Mi-
1D\	-ło-	1d\	-ło-	1f#\X	-ło-	1a\	-ło-
!!LO:PB:g=original
=7-	=7	=7-	=7	=7-	=7	=7-	=7
*xywh-20v:1153,5448,5120,1241	*	*xywh-20v:1192,4099,5081,1260	*	*xywh-20v:1182,2780,5071,1368	*	*xywh-20v:1182,1207,5032,1612	*
1GG/	-wáć	1d\	-wáć	1g\	-wáć	1b\	-wáć
2r	.	2r	.	2r	.	2r	.
2BB-/	ze	2B-/y	ze	2fn\y	ze	2dd\	ze
=8-	=8	=8-	=8	=8-	=8	=8-	=8
!LO:SIC:s=2.E-	!	!	!	!	!LO:SIC:s=2b-:brak bemola	!	!
2.E\	wszyt-	2B-/	wszyt-	2.g\	wszyt-	2b-\y	wszyt-
.	.	1B-/	-kiéy	.	.	2b-\	-kiéy
4D/	-kiéy	.	.	4f\	.	.	.
!	!	!	!	!	!	!LO:SIC:s=1ee-	!
4C/	.	.	.	4e-\X	.	1ee\	du-
4BB-/	.	.	.	4d\	-kiéy	.	.
2C/	du-	2A/	du-	2e-\X	du-	.	.
=9-	=9	=9-	=9	=9-	=9	=9-	=9
2BB-/	-sze	2B-/	-sze	2f\	-sze	2dd\	-sze
2FF/	bę-	2cny/	bę-	2f\	bę-	2cc\	bę-
2BB-/	-dę,	2d\	.	2f\	-dę,	2b-\	.
2C/	móy	4c/	.	2e-\	móy	4a\	.
.	.	4B-/	-dę,	.	.	4g/	-dę,
=10-	=10	=10-	=10	=10-	=10	=10-	=10
0D\	pá-	2.A/	móy	2.d\	pá-	2.f#/X	móy
.	.	4G/	.	8c/L	.	4e/	.
.	.	.	.	8B-/J	.	.	.
.	.	4A/	.	4A/	.	4f#/	.
.	.	4B-/	.	4G/	.	2g/	pá-
.	.	2A/	pá-	4d\	.	.	.
.	.	.	.	4c\	-nie.	4f#/	.
=11-	=11	=11-	=11	=11-	=11	=11-	=11
0GG/;ll	-nie.	0G/;ll	-nie.	0Bn/ll	.	0g\;ll	-nie.
==	==	==	==	==	==	==	==
*-	*-	*-	*-	*-	*-	*-	*-
!!!RDF**kern: l = terminal long
!!!system-decoration: s1,s2,s3,s4
!!!RDF**kern: > = above
!!!ENC: Marta Lawrence
!!!END: 2020-02-04
!!!URL-scan: https://polona.pl/item/melodiae-na-psalterz-polski,Nzk3MTM4ODQ/56 Scan on Polona
!!!IIIF: https://polona.pl/iiif/item/Nzk3MTM4ODQ/manifest.json
